X:224
T: Nancy Clough
R:polka 32
M: 4/4
C: Tom Clough
L: 1/8
K:Dmaj
(3ABc|:d2D2F2A2|d2fe d2A2|d2ef gfed| c2ec A2 (3ABc|!
d2D2F2A2|d2fe d2A2|B2g2 fedc| [1d6 (3ABc:|[2d6(fg)||!
|:a3b a2f2|g3a g2e2|f2d2gfed| c2e2A2Bc|!
d2D2F2A2|d2fe d2A2|B2g2 fedc|[1 d6(fg):|[2 d6 (3ABc||!
|:dcBA GFED|F2A2d2A2|dcdf gfed| cdec A2(3ABc|!
dcBA GFED|F2A2d2A2|B2g2 fedc|[1 d6 (3ABc:|[2 d6(fg)||!
|:aAaA a2gf| gBgB g2fe| f2f2 gfed |cdec A2 (3ABc|!
dcBA GFED|F2A2d2A2|B2g2 fedc|[1 d6(fg):|[2d6|]

